build/img/category2__img_04.svg

<svg width="64" height="64" viewBox="0 0 64 64" fill="none" xmlns="http://www.w3.org/2000/svg">
<g opacity="0.4">
<path d="M54.7095 53.7817V8.06813C55.908 7.64077 56.774 6.50529 56.774 5.16129V3.09677C56.774 1.38942 55.3846 0 53.6773 0H10.3224C8.61507 0 7.22565 1.38942 7.22565 3.09677V5.16129C7.22565 6.50529 8.09171 7.64077 9.29017 8.06813V53.7817C6.93765 54.2617 5.16113 56.3468 5.16113 58.8387V64H58.8386V58.8387C58.8386 56.3468 57.062 54.2617 54.7095 53.7817ZM13.4192 8.25806V53.6774H11.3547V8.25806H13.4192ZM15.4837 30.9677H48.516V33.0323H15.4837V30.9677ZM48.516 28.9032H15.4837V8.25806H48.516V28.9032ZM15.4837 35.0968H48.516V53.6774H15.4837V35.0968ZM50.5805 8.25806H52.645V53.6774H50.5805V8.25806ZM9.29017 3.09677C9.29017 2.528 9.75262 2.06452 10.3224 2.06452H53.6773C54.2471 2.06452 54.7095 2.528 54.7095 3.09677V5.16129C54.7095 5.73006 54.2471 6.19355 53.6773 6.19355H10.3224C9.75262 6.19355 9.29017 5.73006 9.29017 5.16129V3.09677ZM56.774 61.9355H7.22565V58.8387C7.22565 57.1314 8.61507 55.7419 10.3224 55.7419H53.6773C55.3846 55.7419 56.774 57.1314 56.774 58.8387V61.9355Z" fill="#333333"/>
<path d="M39.226 16.5161V10.3225H24.7744V16.5161H39.226ZM26.8389 12.387H37.1615V14.4515H26.8389V12.387Z" fill="#333333"/>
<path d="M24.7744 37.1614V43.3549H39.226V37.1614H24.7744ZM37.1615 41.2904H26.8389V39.2259H37.1615V41.2904Z" fill="#333333"/>
</g>
</svg>

<svg width="64" height="64" fill="none" xmlns="http://www.w3.org/2000/svg"><g opacity=".4" fill="#333"><path d="M54.71 53.782V8.068a3.092 3.092 0 002.064-2.907V3.097A3.1 3.1 0 0053.677 0H10.322a3.1 3.1 0 00-3.096 3.097V5.16c0 1.344.866 2.48 2.064 2.907v45.714a5.17 5.17 0 00-4.129 5.057V64H58.84v-5.161a5.171 5.171 0 00-4.13-5.057zM13.42 8.258v45.42h-2.065V8.257h2.064zm2.064 22.71h33.032v2.064H15.484v-2.064zm33.032-2.065H15.484V8.258h33.032v20.645zm-33.032 6.194h33.032v18.58H15.484v-18.58zM50.58 8.258h2.065v45.42H50.58V8.257zM9.29 3.097c0-.569.463-1.032 1.032-1.032h43.355c.57 0 1.032.463 1.032 1.032V5.16c0 .57-.462 1.033-1.032 1.033H10.322c-.57 0-1.032-.464-1.032-1.033V3.097zm47.484 58.838H7.226V58.84a3.1 3.1 0 013.096-3.097h43.355a3.1 3.1 0 013.097 3.097v3.096z"/><path d="M39.226 16.516v-6.193H24.774v6.193h14.452zm-12.387-4.129H37.16v2.064H26.84v-2.064zm-2.065 24.774v6.194h14.452V37.16H24.774zm12.387 4.13H26.84v-2.065h10.32v2.064z"/></g></svg>
